svg/borderRoundDots.svg

<?xml version="1.0" encoding="UTF-8" standalone="no"?>
<!-- Created with Inkscape (http://www.inkscape.org/) -->

<svg
   width="32"
   height="32"
   viewBox="0 0 8.4666666 8.4666668"
   version="1.1"
   id="svg5"
   inkscape:version="1.1.2 (b8e25be8, 2022-02-05)"
   sodipodi:docname="borderRoundDots.svg"
   xmlns:inkscape="http://www.inkscape.org/namespaces/inkscape"
   xmlns:sodipodi="http://sodipodi.sourceforge.net/DTD/sodipodi-0.dtd"
   xmlns="http://www.w3.org/2000/svg"
   xmlns:svg="http://www.w3.org/2000/svg"
   xmlns:rdf="http://www.w3.org/1999/02/22-rdf-syntax-ns#"
   xmlns:cc="http://creativecommons.org/ns#">
  <sodipodi:namedview
     id="namedview7"
     pagecolor="#ffffff"
     bordercolor="#111111"
     borderopacity="1"
     inkscape:pageshadow="0"
     inkscape:pageopacity="0"
     inkscape:pagecheckerboard="1"
     inkscape:document-units="mm"
     showgrid="true"
     width="32mm"
     units="px"
     objecttolerance="10000"
     guidetolerance="10000"
     inkscape:snap-perpendicular="true"
     inkscape:snap-tangential="true"
     inkscape:zoom="34.90625"
     inkscape:cx="16"
     inkscape:cy="16"
     inkscape:window-width="2560"
     inkscape:window-height="1301"
     inkscape:window-x="0"
     inkscape:window-y="25"
     inkscape:window-maximized="0"
     inkscape:current-layer="layer1"
     gridtolerance="10000">
    <inkscape:grid
       type="xygrid"
       id="grid9"
       units="px"
       empspacing="2" />
  </sodipodi:namedview>
  <defs
     id="defs2" />
  <g
     inkscape:label="Layer 1"
     inkscape:groupmode="layer"
     id="layer1">
    <path
       id="path1478"
       style="fill:#000000;stroke-width:0"
       d="m 16,30 a 1.9999999,1.9999999 0 0 0 -2,2 h 2 2 a 1.9999999,1.9999999 0 0 0 -2,-2 z"
       transform="scale(0.26458333)" />
    <path
       id="path1249"
       style="fill:#000000;stroke-width:0"
       d="M 0,7.9374999 V 8.4666666 H 0.52916667 A 0.52916664,0.52916664 0 0 0 0,7.9374999 Z" />
    <path
       id="path1483"
       style="fill:#000000;stroke-width:0"
       d="M 8.4666661,7.9374999 V 8.4666666 H 7.9374995 A 0.52916664,0.52916664 0 0 1 8.4666661,7.9374999 Z" />
    <path
       id="path1565"
       style="fill:#000000;stroke-width:0"
       d="M 4.2333333,0.52916754 A 0.52916663,0.52916663 0 0 1 3.7041666,7.7666667e-7 H 4.2333333 4.7624999 A 0.52916663,0.52916663 0 0 1 4.2333333,0.52916754 Z" />
    <path
       id="path1567"
       style="fill:#000000;stroke-width:0"
       d="M 0,0.52916754 V 7.7666667e-7 H 0.52916667 A 0.52916664,0.52916664 0 0 1 0,0.52916754 Z" />
    <path
       id="path1569"
       style="fill:#000000;stroke-width:0"
       d="M 8.4666661,0.52916754 V 7.7666667e-7 H 7.9374995 A 0.52916664,0.52916664 0 0 0 8.4666661,0.52916754 Z" />
    <path
       id="path1583"
       style="fill:#000000;stroke-width:0"
       d="M 7.9375,4.2333332 A 0.52916663,0.52916663 0 0 1 8.4666667,3.7041666 V 4.2333332 4.7624997 A 0.52916663,0.52916663 0 0 1 7.9375,4.2333332 Z" />
    <path
       id="path1585"
       style="fill:#000000;stroke-width:0"
       d="M 0.52916764,4.2333332 A 0.52916663,0.52916663 0 0 0 8.7666667e-7,3.7041666 V 4.2333332 4.7624997 A 0.52916663,0.52916663 0 0 0 0.52916764,4.2333332 Z" />
  </g>
  <metadata
     id="metadata33">
    <rdf:RDF>
      <cc:Work
         rdf:about="">
        <cc:license
           rdf:resource="http://creativecommons.org/licenses/by-sa/4.0/" />
      </cc:Work>
      <cc:License
         rdf:about="http://creativecommons.org/licenses/by-sa/4.0/">
        <cc:permits
           rdf:resource="http://creativecommons.org/ns#Reproduction" />
        <cc:permits
           rdf:resource="http://creativecommons.org/ns#Distribution" />
        <cc:requires
           rdf:resource="http://creativecommons.org/ns#Notice" />
        <cc:requires
           rdf:resource="http://creativecommons.org/ns#Attribution" />
        <cc:permits
           rdf:resource="http://creativecommons.org/ns#DerivativeWorks" />
        <cc:requires
           rdf:resource="http://creativecommons.org/ns#ShareAlike" />
      </cc:License>
    </rdf:RDF>
  </metadata>
</svg>

<svg width="32" height="32" viewBox="0 0 8.467 8.467" xmlns="http://www.w3.org/2000/svg"><path style="fill:#000;stroke-width:0" d="M16 30a2 2 0 0 0-2 2h4a2 2 0 0 0-2-2z" transform="scale(.26458)"/><path style="fill:#000;stroke-width:0" d="M0 7.937v.53h.53a.53.53 0 0 0-.53-.53ZM8.467 7.937v.53h-.53a.53.53 0 0 1 .53-.53ZM4.233.53A.53.53 0 0 1 3.704 0h1.058a.53.53 0 0 1-.529.53ZM0 .53V0h.53A.53.53 0 0 1 0 .53ZM8.467.53V0h-.53a.53.53 0 0 0 .53.53ZM7.938 4.233a.53.53 0 0 1 .529-.529v1.058a.53.53 0 0 1-.53-.529ZM.53 4.233A.53.53 0 0 0 0 3.704v1.058a.53.53 0 0 0 .53-.529Z"/></svg>
